source/img/common/icon-fire-stroke.svg

<svg width="24" height="37" viewBox="0 0 24 37" fill="none" xmlns="http://www.w3.org/2000/svg">
<path d="M7.62975 14.658C7.58595 14.9511 7.48219 15.2645 7.23995 15.6078C6.92438 14.1946 5.78746 13.0325 4.48818 12.4468L2.35889 11.487L3.60928 13.4597C4.10346 14.2394 4.07643 15.3731 3.64608 16.8313C3.26882 18.1095 2.6345 19.4704 2.01677 20.7957C1.94146 20.9573 1.86639 21.1183 1.79207 21.2786C1.26999 22.3891 0.883008 23.634 0.883008 25.0526C0.883008 30.9725 5.93328 35.7 12.0853 35.7C18.2329 35.7 23.283 30.9723 23.283 25.0526C23.283 20.019 19.9636 16.9045 17.1404 14.2554C17.028 14.15 16.9164 14.0452 16.8058 13.9412C15.3235 12.546 14.0384 11.2862 13.2875 9.89888C12.5649 8.56401 12.334 7.10253 13.0269 5.24459L13.8662 2.99392L11.9492 4.44136C9.77845 6.08039 8.56772 7.5091 7.94232 8.82293C7.30641 10.1588 7.30863 11.3076 7.42465 12.2956C7.45305 12.5374 7.48843 12.7709 7.52186 12.9887C7.52418 13.0038 7.52648 13.0188 7.52877 13.0337C7.56014 13.2378 7.58909 13.4262 7.61207 13.6111C7.66132 14.0074 7.67676 14.3434 7.62975 14.658Z" stroke="#FF4F52" stroke-width="1.4"/>
</svg>

<svg width="24" height="37" viewBox="0 0 24 37" fill="none" xmlns="http://www.w3.org/2000/svg"><path d="M7.63 14.658a2.15 2.15 0 01-.39.95c-.316-1.413-1.453-2.575-2.752-3.161l-2.13-.96L3.61 13.46c.494.78.467 1.913.037 3.371-.377 1.279-1.011 2.64-1.63 3.965l-.224.483c-.522 1.11-.909 2.355-.909 3.774 0 5.92 5.05 10.647 11.202 10.647 6.148 0 11.198-4.728 11.198-10.647 0-5.034-3.32-8.149-6.143-10.798l-.334-.314c-1.483-1.395-2.768-2.655-3.519-4.042-.722-1.335-.953-2.796-.26-4.654l.84-2.251-1.918 1.447C9.78 6.081 8.568 7.51 7.942 8.823c-.636 1.336-.633 2.485-.517 3.473.028.241.063.475.097.693l.007.045c.031.204.06.392.083.577.05.396.065.732.018 1.047z" stroke="#FF4F52" stroke-width="1.4"/></svg>
